flaticon/medical/skull.svg

<svg xmlns="http://www.w3.org/2000/svg" width="32" height="32" viewBox="0 0 24 24">
    <path d="M 21.042969 12.082031 C 21.011719 11.957031 20.96875 11.835938 20.917969 11.726562 C 20.90625 11.699219 20.894531 11.675781 20.882812 11.652344 C 20.828125 11.542969 20.765625 11.441406 20.691406 11.351562 C 20.683594 11.335938 20.667969 11.324219 20.65625 11.308594 C 20.589844 11.230469 20.515625 11.152344 20.433594 11.085938 C 20.414062 11.070312 20.398438 11.054688 20.378906 11.039062 C 20.285156 10.96875 20.1875 10.90625 20.082031 10.855469 C 20.074219 10.851562 20.066406 10.84375 20.058594 10.839844 L 20.167969 10.523438 C 21.085938 7.03125 20.761719 4.335938 19.207031 2.511719 C 16.816406 -0.296875 12.414062 -0.015625 11.917969 0.0273438 C 11.417969 -0.015625 7.015625 -0.296875 4.628906 2.511719 C 3.070312 4.335938 2.746094 7.03125 3.667969 10.535156 L 3.785156 10.925781 C 3.78125 10.925781 3.78125 10.929688 3.777344 10.933594 C 3.558594 11.0625 3.375 11.238281 3.230469 11.453125 C 3.230469 11.457031 3.226562 11.460938 3.222656 11.464844 C 3.101562 11.648438 3.007812 11.855469 2.953125 12.082031 C 2.949219 12.109375 2.945312 12.140625 2.941406 12.167969 C 2.9375 12.175781 2.933594 12.183594 2.933594 12.191406 C 2.929688 12.207031 2.929688 12.226562 2.929688 12.242188 C 2.921875 12.289062 2.914062 12.339844 2.910156 12.390625 C 2.910156 12.421875 2.910156 12.457031 2.90625 12.488281 C 2.90625 12.53125 2.90625 12.574219 2.910156 12.617188 C 2.910156 12.660156 2.917969 12.699219 2.921875 12.742188 C 2.925781 12.777344 2.929688 12.808594 2.933594 12.84375 C 2.945312 12.894531 2.957031 12.945312 2.96875 12.992188 C 2.976562 13.015625 2.980469 13.039062 2.988281 13.0625 C 3.007812 13.121094 3.03125 13.175781 3.054688 13.234375 C 3.058594 13.246094 3.0625 13.261719 3.070312 13.277344 C 3.097656 13.335938 3.132812 13.398438 3.167969 13.453125 C 3.171875 13.464844 3.175781 13.472656 3.179688 13.480469 C 3.21875 13.542969 3.261719 13.601562 3.308594 13.65625 C 3.3125 13.660156 3.316406 13.667969 3.320312 13.671875 C 3.371094 13.734375 3.425781 13.792969 3.488281 13.847656 C 3.484375 13.894531 3.484375 13.949219 3.480469 14.011719 C 3.476562 14.425781 3.539062 15.066406 3.925781 15.550781 C 3.992188 15.632812 4.070312 15.707031 4.148438 15.777344 C 4.175781 15.796875 4.207031 15.816406 4.234375 15.835938 C 4.292969 15.878906 4.351562 15.917969 4.417969 15.953125 C 4.453125 15.96875 4.492188 15.984375 4.53125 16 C 4.59375 16.027344 4.65625 16.050781 4.722656 16.070312 C 4.765625 16.085938 4.8125 16.09375 4.859375 16.101562 C 4.898438 16.109375 4.933594 16.125 4.972656 16.128906 L 4.972656 18.449219 C 4.988281 18.578125 5.382812 21.609375 10.003906 23.597656 C 10.628906 23.863281 11.289062 24 11.941406 24 C 12.597656 24 13.246094 23.863281 13.839844 23.59375 C 18.425781 21.496094 18.605469 18.546875 18.609375 18.40625 L 18.609375 16.164062 C 18.621094 16.164062 18.628906 16.160156 18.636719 16.160156 L 18.863281 16.148438 C 19.367188 16.113281 19.785156 15.90625 20.070312 15.550781 C 20.511719 15 20.53125 14.238281 20.507812 13.847656 C 20.992188 13.402344 21.195312 12.742188 21.042969 12.082031 Z M 17.785156 18.382812 C 17.777344 18.488281 17.585938 20.972656 13.496094 22.839844 C 12.523438 23.285156 11.371094 23.285156 10.328125 22.835938 C 6.320312 21.109375 5.839844 18.636719 5.800781 18.378906 L 5.800781 16.191406 C 6.835938 16.269531 7.039062 16.394531 7.039062 17.386719 L 7.039062 18.25 C 7.039062 18.328125 7.054688 18.398438 7.074219 18.46875 C 7.015625 18.605469 7.03125 18.757812 7.121094 18.875 L 8.363281 20.527344 C 8.367188 20.535156 8.375 20.539062 8.378906 20.542969 C 8.40625 20.578125 8.441406 20.601562 8.476562 20.625 C 8.492188 20.632812 8.503906 20.644531 8.519531 20.652344 C 8.570312 20.675781 8.628906 20.695312 8.691406 20.695312 L 15.304688 20.695312 C 15.367188 20.695312 15.425781 20.675781 15.476562 20.652344 C 15.492188 20.644531 15.503906 20.632812 15.519531 20.625 C 15.554688 20.601562 15.589844 20.578125 15.617188 20.542969 C 15.621094 20.539062 15.628906 20.535156 15.636719 20.527344 L 16.875 18.875 C 16.960938 18.757812 16.980469 18.605469 16.921875 18.46875 C 16.941406 18.398438 16.957031 18.328125 16.957031 18.25 L 16.957031 17.386719 C 16.957031 16.542969 17.105469 16.328125 17.785156 16.230469 Z M 14.890625 19.867188 L 14.066406 19.867188 L 14.066406 19.039062 L 14.890625 19.039062 Z M 13.238281 19.867188 L 12.410156 19.867188 L 12.410156 19.039062 L 13.238281 19.039062 Z M 11.585938 19.867188 L 10.757812 19.867188 L 10.757812 19.039062 L 11.585938 19.039062 Z M 9.929688 19.867188 L 9.105469 19.867188 L 9.105469 19.039062 L 9.929688 19.039062 Z M 19.828125 13.335938 L 19.628906 13.484375 L 19.667969 13.730469 C 19.703125 13.964844 19.730469 14.65625 19.425781 15.035156 C 19.285156 15.210938 19.082031 15.304688 18.808594 15.320312 L 18.585938 15.335938 C 18.460938 15.34375 18.335938 15.351562 18.214844 15.363281 C 18.199219 15.363281 18.183594 15.363281 18.167969 15.363281 L 17.785156 15.394531 L 17.785156 15.40625 C 16.816406 15.53125 16.132812 15.882812 16.132812 17.386719 L 16.132812 18.214844 L 15.71875 18.214844 L 15.71875 16.972656 C 15.71875 16.746094 15.53125 16.5625 15.304688 16.5625 C 15.078125 16.5625 14.890625 16.746094 14.890625 16.972656 L 14.890625 18.214844 L 14.066406 18.214844 L 14.066406 16.972656 C 14.066406 16.746094 13.878906 16.5625 13.652344 16.5625 C 13.421875 16.5625 13.238281 16.746094 13.238281 16.972656 L 13.238281 18.214844 L 12.410156 18.214844 L 12.410156 16.972656 C 12.410156 16.746094 12.226562 16.5625 12 16.5625 C 11.769531 16.5625 11.585938 16.746094 11.585938 16.972656 L 11.585938 18.214844 L 10.757812 18.214844 L 10.757812 16.972656 C 10.757812 16.746094 10.574219 16.5625 10.34375 16.5625 C 10.117188 16.5625 9.933594 16.746094 9.933594 16.972656 L 9.933594 18.214844 L 9.105469 18.214844 L 9.105469 16.972656 C 9.105469 16.746094 8.921875 16.5625 8.691406 16.5625 C 8.464844 16.5625 8.277344 16.746094 8.277344 16.972656 L 8.277344 18.214844 L 7.867188 18.214844 L 7.867188 17.386719 C 7.867188 15.675781 6.980469 15.453125 5.800781 15.363281 L 5.6875 15.355469 C 5.597656 15.347656 5.503906 15.34375 5.410156 15.335938 L 5.1875 15.320312 C 4.914062 15.304688 4.710938 15.210938 4.574219 15.035156 C 4.269531 14.65625 4.296875 13.964844 4.332031 13.730469 L 4.320312 13.453125 L 4.125 13.300781 C 4.054688 13.25 3.996094 13.1875 3.945312 13.125 C 3.9375 13.113281 3.929688 13.105469 3.921875 13.09375 C 3.875 13.03125 3.839844 12.960938 3.808594 12.890625 C 3.804688 12.875 3.796875 12.863281 3.792969 12.847656 C 3.769531 12.777344 3.75 12.703125 3.742188 12.628906 C 3.742188 12.613281 3.738281 12.601562 3.738281 12.585938 C 3.734375 12.503906 3.734375 12.421875 3.75 12.335938 C 3.75 12.332031 3.75 12.328125 3.75 12.324219 C 3.761719 12.265625 3.78125 12.210938 3.800781 12.15625 C 3.816406 12.113281 3.828125 12.074219 3.847656 12.035156 C 3.871094 11.988281 3.902344 11.941406 3.933594 11.898438 C 3.953125 11.871094 3.972656 11.839844 3.996094 11.816406 C 4.035156 11.773438 4.078125 11.734375 4.125 11.699219 C 4.148438 11.679688 4.171875 11.660156 4.199219 11.644531 C 4.25 11.613281 4.300781 11.589844 4.359375 11.570312 C 4.410156 11.546875 4.464844 11.523438 4.523438 11.511719 C 5.285156 11.359375 5.796875 11.089844 6.050781 10.703125 C 6.207031 10.46875 6.261719 10.195312 6.210938 9.910156 L 6.210938 8.707031 C 6.210938 8.480469 6.027344 8.296875 5.800781 8.296875 C 5.570312 8.296875 5.386719 8.480469 5.386719 8.707031 L 5.386719 9.949219 L 5.394531 10.035156 C 5.417969 10.144531 5.390625 10.203125 5.363281 10.25 C 5.308594 10.328125 5.128906 10.511719 4.566406 10.652344 L 4.464844 10.3125 C 3.621094 7.101562 3.886719 4.65625 5.253906 3.050781 C 7.453125 0.464844 11.832031 0.847656 11.878906 0.851562 L 11.917969 0.859375 L 11.957031 0.851562 C 12 0.851562 16.382812 0.464844 18.578125 3.050781 C 19.945312 4.65625 20.214844 7.101562 19.382812 10.277344 L 19.261719 10.605469 C 18.832031 10.472656 18.679688 10.320312 18.636719 10.25 C 18.605469 10.203125 18.578125 10.144531 18.601562 10.03125 L 18.609375 8.707031 C 18.609375 8.480469 18.425781 8.292969 18.199219 8.292969 C 17.96875 8.292969 17.785156 8.480469 17.785156 8.707031 L 17.785156 9.910156 C 17.734375 10.195312 17.789062 10.46875 17.945312 10.703125 C 18.140625 11 18.496094 11.230469 18.996094 11.386719 L 18.992188 11.402344 L 19.472656 11.511719 C 19.515625 11.519531 19.550781 11.539062 19.59375 11.550781 C 19.644531 11.570312 19.695312 11.582031 19.742188 11.605469 C 19.800781 11.636719 19.851562 11.679688 19.902344 11.722656 C 19.921875 11.738281 19.945312 11.75 19.964844 11.769531 C 20.015625 11.820312 20.058594 11.882812 20.097656 11.945312 C 20.109375 11.960938 20.121094 11.976562 20.132812 11.992188 C 20.179688 12.074219 20.214844 12.167969 20.234375 12.265625 C 20.308594 12.578125 20.25 13.015625 19.875 13.300781 Z M 19.828125 13.335938"/>
    <path d="M11.191406 8.746094C10.980469 7.558594 8.933594 7.445312 8.523438 7.433594L8.515625 7.433594C8.109375 7.433594 7.363281 7.632812 7.144531 8.378906 7.003906 8.867188 7.085938 9.703125 7.515625 10.355469 7.828125 10.828125 8.269531 11.113281 8.789062 11.171875 8.867188 11.183594 8.945312 11.1875 9.019531 11.1875 9.59375 11.1875 10.15625 10.933594 10.59375 10.476562 11.070312 9.972656 11.292969 9.324219 11.191406 8.746094zM9.992188 9.90625C9.679688 10.238281 9.277344 10.402344 8.886719 10.351562 8.613281 10.320312 8.382812 10.167969 8.203125 9.898438 7.914062 9.460938 7.863281 8.871094 7.9375 8.609375 8.035156 8.289062 8.460938 8.261719 8.511719 8.261719 9.234375 8.28125 10.308594 8.515625 10.375 8.890625 10.429688 9.203125 10.28125 9.601562 9.992188 9.90625zM15.523438 7.433594L15.511719 7.433594C15.105469 7.445312 13.058594 7.558594 12.847656 8.746094 12.746094 9.324219 12.96875 9.972656 13.445312 10.476562 13.882812 10.9375 14.441406 11.1875 15.015625 11.1875 15.09375 11.1875 15.171875 11.183594 15.25 11.175781 15.769531 11.113281 16.210938 10.828125 16.523438 10.355469 16.953125 9.703125 17.035156 8.867188 16.894531 8.382812 16.675781 7.632812 15.929688 7.433594 15.523438 7.433594zM15.835938 9.898438C15.65625 10.167969 15.425781 10.320312 15.152344 10.351562 14.761719 10.398438 14.359375 10.238281 14.046875 9.90625 13.757812 9.601562 13.609375 9.203125 13.664062 8.890625 13.730469 8.519531 14.800781 8.28125 15.527344 8.261719 15.578125 8.261719 16.003906 8.289062 16.097656 8.613281 16.175781 8.871094 16.125 9.460938 15.835938 9.898438zM12.507812 12.59375C12.496094 12.5625 12.476562 12.507812 12.460938 12.453125 12.453125 12.421875 12.441406 12.382812 12.425781 12.34375L12.421875 12.074219 12.140625 12.03125C12.101562 12.019531 12.058594 12.011719 12.011719 12.011719 11.957031 12.015625 11.910156 12.019531 11.871094 12.035156L11.597656 12.082031 11.597656 12.34375C11.582031 12.386719 11.570312 12.421875 11.558594 12.457031 11.542969 12.507812 11.527344 12.5625 11.527344 12.566406L10.535156 14.304688C10.363281 14.609375 10.304688 14.949219 10.375 15.261719 10.476562 15.722656 10.808594 16 11.265625 16 11.269531 16 11.273438 16 11.277344 16 11.527344 15.996094 11.765625 15.910156 11.964844 15.753906 11.988281 15.734375 12.035156 15.734375 12.054688 15.753906 12.253906 15.910156 12.492188 15.996094 12.742188 16 13.195312 16 13.542969 15.730469 13.648438 15.261719 13.71875 14.949219 13.660156 14.609375 13.488281 14.304688zM12.839844 15.082031C12.828125 15.136719 12.8125 15.160156 12.808594 15.164062 12.808594 15.164062 12.796875 15.175781 12.75 15.171875 12.683594 15.171875 12.625 15.148438 12.570312 15.105469 12.246094 14.847656 11.777344 14.847656 11.453125 15.105469 11.398438 15.148438 11.335938 15.171875 11.269531 15.171875 11.230469 15.171875 11.214844 15.164062 11.214844 15.164062 11.210938 15.160156 11.191406 15.136719 11.179688 15.082031 11.15625 14.96875 11.183594 14.835938 11.25 14.714844L12.011719 13.386719 12.769531 14.714844C12.839844 14.835938 12.867188 14.972656 12.839844 15.082031zM6.015625 5.339844C6.210938 5.21875 6.269531 4.964844 6.148438 4.769531 6.027344 4.574219 5.773438 4.515625 5.582031 4.636719 4.921875 5.046875 4.558594 5.613281 4.558594 6.226562 4.558594 6.84375 4.921875 7.410156 5.582031 7.820312 5.648438 7.863281 5.722656 7.882812 5.796875 7.882812 5.9375 7.882812 6.070312 7.8125 6.148438 7.6875 6.269531 7.492188 6.210938 7.238281 6.015625 7.117188 5.609375 6.863281 5.386719 6.546875 5.386719 6.226562 5.386719 5.910156 5.609375 5.59375 6.015625 5.339844zM17.980469 7.117188C17.785156 7.238281 17.726562 7.492188 17.847656 7.6875 17.925781 7.8125 18.058594 7.882812 18.199219 7.882812 18.273438 7.882812 18.347656 7.863281 18.414062 7.820312 19.074219 7.410156 19.4375 6.84375 19.4375 6.226562 19.4375 5.613281 19.074219 5.046875 18.414062 4.636719 18.222656 4.515625 17.96875 4.574219 17.847656 4.769531 17.726562 4.964844 17.785156 5.21875 17.980469 5.339844 18.386719 5.59375 18.609375 5.90625 18.609375 6.226562 18.609375 6.546875 18.386719 6.863281 17.980469 7.117188zM17.980469 7.117188"/>
</svg>

<svg xmlns="http://www.w3.org/2000/svg" width="32" height="32" viewBox="0 0 24 24">
    <path d="M21.043 12.082a2.009 2.009 0 0 0-.352-.73c-.007-.016-.023-.028-.035-.043a1.713 1.713 0 0 0-.222-.223l-.055-.047a1.788 1.788 0 0 0-.297-.184c-.008-.003-.016-.011-.023-.015l.109-.317c.918-3.492.594-6.187-.961-8.011-2.39-2.809-6.793-2.528-7.289-2.485-.5-.043-4.902-.324-7.29 2.485-1.558 1.824-1.882 4.52-.96 8.023l.117.39c-.004 0-.004.005-.008.009a1.693 1.693 0 0 0-.554.53c-.121.184-.215.391-.27.618l-.012.086a.056.056 0 0 0-.007.023c-.004.016-.004.036-.004.051a1.705 1.705 0 0 0-.02.149c0 .03 0 .066-.004.097 0 .043 0 .086.004.13 0 .042.008.081.012.124l.012.102.035.148c.008.024.011.047.02.07.019.06.042.114.066.172.004.012.007.028.015.043.028.059.063.121.098.176a.19.19 0 0 0 .012.027c.039.063.082.122.129.176.003.004.007.012.011.016.051.062.106.121.168.176-.004.047-.004.101-.008.164-.003.414.06 1.054.446 1.539.066.082.144.156.222.226l.086.059c.059.043.118.082.184.117.035.016.074.031.113.047.063.027.125.05.192.07.043.016.09.024.136.032.04.007.075.023.114.027v2.32c.015.13.41 3.16 5.03 5.149a4.963 4.963 0 0 0 1.938.402c.657 0 1.305-.137 1.899-.406 4.586-2.098 4.765-5.047 4.77-5.188v-2.242c.011 0 .019-.004.027-.004l.226-.012c.504-.035.922-.242 1.207-.597.442-.551.461-1.313.438-1.703a1.815 1.815 0 0 0 .535-1.766zm-3.258 6.3c-.008.106-.2 2.59-4.289 4.458-.973.445-2.125.445-3.168-.004-4.008-1.727-4.488-4.2-4.527-4.457V16.19c1.035.079 1.238.204 1.238 1.196v.863a.8.8 0 0 0 .035.219.4.4 0 0 0 .047.406l1.242 1.652c.004.008.012.012.016.016.027.035.062.059.098.082.015.008.027.02.043.027.05.024.109.043.171.043h6.614c.062 0 .12-.02.172-.043.015-.007.027-.02.043-.027.035-.023.07-.047.097-.082.004-.004.012-.008.02-.016l1.238-1.652a.41.41 0 0 0 .047-.406.8.8 0 0 0 .035-.219v-.863c0-.844.148-1.059.828-1.157zm-2.894 1.485h-.825v-.828h.825zm-1.653 0h-.828v-.828h.828zm-1.652 0h-.828v-.828h.828zm-1.656 0h-.825v-.828h.825zm9.898-6.531l-.2.148.04.246c.035.235.062.926-.242 1.305-.14.176-.344.27-.617.285l-.223.016c-.125.008-.25.016-.371.027h-.047l-.383.032v.011c-.969.125-1.652.477-1.652 1.98v.829h-.414v-1.242a.413.413 0 0 0-.828 0v1.242h-.825v-1.242a.413.413 0 0 0-.414-.41.411.411 0 0 0-.414.41v1.242h-.828v-1.242a.41.41 0 0 0-.41-.41.411.411 0 0 0-.414.41v1.242h-.828v-1.242a.411.411 0 0 0-.414-.41.41.41 0 0 0-.41.41v1.242h-.829v-1.242a.411.411 0 0 0-.414-.41.413.413 0 0 0-.414.41v1.242h-.41v-.828c0-1.711-.887-1.934-2.066-2.024l-.114-.008c-.09-.007-.183-.011-.277-.02l-.223-.015c-.273-.015-.476-.11-.613-.285-.304-.379-.277-1.07-.242-1.305l-.012-.277-.195-.152a.96.96 0 0 1-.18-.176c-.007-.012-.015-.02-.023-.031a1.036 1.036 0 0 1-.113-.203c-.004-.016-.012-.028-.016-.043a1.047 1.047 0 0 1-.05-.22c0-.015-.005-.026-.005-.042a1.084 1.084 0 0 1 .012-.25v-.012c.012-.058.031-.113.05-.168.016-.043.028-.082.048-.12.023-.048.054-.095.086-.138.02-.027.039-.058.062-.082a.919.919 0 0 1 .129-.117.749.749 0 0 1 .234-.129.743.743 0 0 1 .164-.058c.762-.153 1.274-.422 1.528-.809.156-.234.21-.508.16-.793V8.707a.41.41 0 0 0-.41-.41.411.411 0 0 0-.414.41v1.242l.008.086a.268.268 0 0 1-.032.215c-.054.078-.234.262-.797.402l-.101-.34c-.844-3.21-.578-5.656.789-7.261C7.454.465 11.832.848 11.879.85l.039.008.039-.007c.043 0 4.426-.387 6.621 2.199 1.367 1.605 1.637 4.05.805 7.226l-.121.328c-.43-.132-.582-.285-.625-.355-.032-.047-.059-.105-.035-.219l.007-1.324a.413.413 0 0 0-.41-.414.414.414 0 0 0-.414.414V9.91c-.05.285.004.559.16.793.196.297.551.527 1.051.684l-.004.015.48.11c.044.008.079.027.122.039.05.02.101.031.148.054.059.032.11.075.16.118.02.015.043.027.063.047.05.05.094.113.133.175l.035.047a.918.918 0 0 1 .101.274 1 1 0 0 1-.359 1.035zm0 0"/>
    <path d="M11.191 8.746c-.21-1.187-2.257-1.3-2.668-1.312h-.007c-.407 0-1.153.199-1.371.945-.141.488-.06 1.324.37 1.976.313.473.755.758 1.274.817.078.012.156.015.23.015.575 0 1.137-.253 1.575-.71.476-.504.699-1.153.597-1.73zm-1.199 1.16c-.312.332-.715.496-1.105.446-.274-.032-.504-.184-.684-.454-.289-.437-.34-1.027-.265-1.289.097-.32.523-.347.574-.347.722.02 1.797.254 1.863.629.055.312-.094.71-.383 1.015zm0 0M15.523 7.434h-.011c-.407.011-2.453.125-2.664 1.312-.102.578.12 1.227.597 1.73.438.461.996.711 1.57.711.079 0 .157-.003.235-.011.52-.063.96-.348 1.273-.82.43-.653.512-1.489.372-1.973-.22-.75-.965-.95-1.372-.95zm.313 2.464c-.18.27-.41.422-.684.454-.39.046-.793-.114-1.105-.446-.29-.304-.438-.703-.383-1.015.066-.371 1.137-.61 1.863-.63.051 0 .477.028.57.352.079.258.028.848-.261 1.285zm0 0M12.508 12.594a1.95 1.95 0 0 1-.047-.14.87.87 0 0 0-.035-.11l-.004-.27-.281-.043a.446.446 0 0 0-.27.004l-.273.047v.262a1.797 1.797 0 0 0-.07.223l-.993 1.738c-.172.304-.23.644-.16.957.102.46.434.738.89.738h.012c.25-.004.489-.09.688-.246.023-.02.07-.02.09 0 .199.156.437.242.687.246.453 0 .801-.27.906-.738.07-.313.012-.653-.16-.957zm.332 2.488a.197.197 0 0 1-.031.082s-.012.012-.059.008a.284.284 0 0 1-.18-.067.904.904 0 0 0-1.117 0 .294.294 0 0 1-.183.067c-.04 0-.055-.008-.055-.008a.174.174 0 0 1-.035-.082.552.552 0 0 1 .07-.367l.762-1.328.758 1.328c.07.12.097.258.07.367zm0 0M6.016 5.34a.413.413 0 0 0 .132-.57.409.409 0 0 0-.566-.133c-.66.41-1.023.976-1.023 1.59 0 .617.363 1.183 1.023 1.593a.412.412 0 0 0 .566-.133.413.413 0 0 0-.132-.57c-.407-.254-.63-.57-.63-.89 0-.317.223-.633.63-.887zm0 0M17.98 7.117a.413.413 0 0 0 .22.766c.073 0 .148-.02.214-.063.66-.41 1.023-.976 1.023-1.593 0-.614-.363-1.18-1.023-1.59a.409.409 0 0 0-.566.133.413.413 0 0 0 .132.57c.407.254.63.566.63.887 0 .32-.223.636-.63.89zm0 0"/>
</svg>
